X:1
T:Melton's Parade
M:C
L:1/8
R:Reel
S:Ford - Traditional Music in America (1940)
Z:AK/Fiddler's Companion
K:D
DF|AFAF A2 dc|BGBG B2gf|e>f ed c2 cB|A>B AG F2 DF|
AFAF A2 dc|BGBG B2 gf|e>fed cABc|d2f2d2:|
|:AB|d2 df a4|a2b2b2 gf|e>f ed c2 cB|A>B AG F2 AB|
d2 df a4|a2b2b2 gf|e>f ed cABc|d2f2d2:|

